X: 24311
T: Lough Allen
R: jig
M: 6/8
K: Dmajor
|:dAF ABc|dAF DFD|E2E GAB|Ace gec|
dAF ABc|dAF DFD|E2E GAB|1 ABc d2c:|2 ABc d2A||
def def|gBB B2A|cde cde|fdc d2A|
d2e fga|bee efg|afd gec|edc d2A|
def dfa|gBB B2A|cde cde|fdc d2A|
d2e fga|bee efg|afd gec|edc d3||

